X: 1
T: the Grand Picnic
B: Portland Coll. v.1
R: reel
Z: 2019 John Chambers <jc:trillian.mit.edu>
M: C|
L: 1/8
K: D
|:\
"D"DFAB AFED | FAde fedf | "G"edBd "E7/g#"BAFA- | "A7"AFE2 [1,3 E2 {G}FE :|[2,4 "D"D4 :|
|:\
"D"fefg a2a2 | fefg a2a2 | "G"g2bg "D"f2af | "E7"edef "A7"edBA |
"D"d2d2 BAFE | D2{A}de fedf | "G"edBd "E7/g#"BAFA- | "A7"AFE2 "D"D4 :|
